img/divider-3.svg

<svg fill="none" height="12" viewBox="0 0 71 12" width="71" xmlns="http://www.w3.org/2000/svg"><path d="m26.639 5.41713c.8987.05616 1.7951.12872 2.6938.16851 3.0565.13808 6.1084.33466 9.1392.77934.8823.12872 1.7717.25978 2.5838.65998 1.0882.53595 1.1538 1.49318.1427 2.16018-.8963.59212-1.9144.91746-2.9301 1.23106-.873.2691-1.753.5149-2.6283.7676-.1568.0445-.3651.1568-.4353-.0702-.0679-.2153.1638-.2598.3136-.323 1.2919-.5453 2.5885-1.07887 3.8757-1.63354.3674-.15914.7115-.37681 1.0602-.58042.124-.07255.2808-.16383.2574-.33468-.0234-.17552-.2106-.20595-.3464-.23638-.5172-.11467-1.0367-.23871-1.561-.30658-2.7382-.35808-5.4952-.50084-8.2498-.68339-2.6891-.17787-5.3899-.23871-8.065-.60849-.2738-.03745-.5476-.08192-.8144-.14979-.4517-.11702-.8847-.31362-.8987-.8519-.0141-.56872.4259-.8168.8987-.9268.7021-.16383 1.4136-.31126 2.1321-.38615 2.8318-.29723 5.673-.44468 8.5189-.54532 3.2906-.11701 6.5789-.25977 9.8694-.39083 3.2485-.12873 6.4946-.23639 9.743-.38617 4.2221-.19425 8.4418-.42127 12.6638-.63892.5289-.02809 1.0579-.09362 1.5868-.16383-1.4253-.18957-2.8623-.2317-4.2969-.27851-3.6323-.11702-7.2669-.16383-10.9015-.10532-3.4404.05617-6.8807.14277-10.3211.25745-2.7593.09128-5.5163.21297-8.2709.3768-4.7252.28085-9.4505.5617-14.1663.96892-3.0027.25978-6.0125.45404-9.01984.68807-2.73122.21298-5.4601.43765-8.19133.65531-.222333.01872-.53127.12637-.59212-.18022s.276167-.33936.48446-.39786c1.52359-.43063 3.101-.50084 4.66203-.65297 4.4397-.43531 8.8794-.84487 13.3238-1.23805 2.3474-.20829 4.6995-.39085 7.0515-.53596 4.3227-.26914 8.6477-.52424 12.9751-.744236 2.0783-.105317 4.1636-.102976 6.2442-.175528 5.3992-.18489 10.7985-.163819 16.1977-.079565 2.3755.037446 4.758.098286 7.1148.472747.3346.053832.6693.131062.9899.238722.3441.11468.5992.35106.5851.74658-.0117.36042-.2551.56871-.5687.70212-.578.2434-1.1959.29723-1.8067.36978-2.2562.26914-4.524.4119-6.7918.53828-3.8148.21298-7.632.42126-11.4492.6202-1.9729.10297-3.9458.19426-5.9188.26213-3.6088.12638-7.2154.28786-10.8196.50083-1.8231.10766-3.6486.18255-5.4718.27617-.1989.00936-.3978.03277-.5968.04915 0 .03979.0024.07723.0047.11702z" fill="#2f221b"/></svg>

<svg width="71" height="12" viewBox="0 0 71 12" fill="none" xmlns="http://www.w3.org/2000/svg">
<path d="M26.639 5.41713C27.5377 5.47329 28.4341 5.54585 29.3328 5.58564C32.3893 5.72372 35.4412 5.9203 38.472 6.36498C39.3543 6.4937 40.2437 6.62476 41.0558 7.02496C42.144 7.56091 42.2096 8.51814 41.1985 9.18514C40.3022 9.77726 39.2841 10.1026 38.2684 10.4162C37.3954 10.6853 36.5154 10.9311 35.6401 11.1838C35.4833 11.2283 35.275 11.3406 35.2048 11.1136C35.1369 10.8983 35.3686 10.8538 35.5184 10.7906C36.8103 10.2453 38.1069 9.71173 39.3941 9.15706C39.7615 8.99792 40.1056 8.78025 40.4543 8.57664C40.5783 8.50409 40.7351 8.41281 40.7117 8.24196C40.6883 8.06644 40.5011 8.03601 40.3653 8.00558C39.8481 7.89091 39.3286 7.76687 38.8043 7.699C36.0661 7.34092 33.3091 7.19816 30.5545 7.01561C27.8654 6.83774 25.1646 6.7769 22.4895 6.40712C22.2157 6.36967 21.9419 6.3252 21.6751 6.25733C21.2234 6.14031 20.7904 5.94371 20.7764 5.40543C20.7623 4.83671 21.2023 4.58863 21.6751 4.47863C22.3772 4.3148 23.0887 4.16737 23.8072 4.09248C26.639 3.79525 29.4802 3.6478 32.3261 3.54716C35.6167 3.43015 38.905 3.28739 42.1955 3.15633C45.444 3.0276 48.6901 2.91994 51.9385 2.77016C56.1606 2.57591 60.3803 2.34889 64.6023 2.13124C65.1312 2.10315 65.6602 2.03762 66.1891 1.96741C64.7638 1.77784 63.3268 1.73571 61.8922 1.6889C58.2599 1.57188 54.6253 1.52507 50.9907 1.58358C47.5503 1.63975 44.11 1.72635 40.6696 1.84103C37.9103 1.93231 35.1533 2.054 32.3987 2.21783C27.6735 2.49868 22.9482 2.77953 18.2324 3.18675C15.2297 3.44653 12.2199 3.64079 9.21256 3.87482C6.48134 4.0878 3.75246 4.31247 1.02123 4.53013C0.798897 4.54885 0.48996 4.6565 0.42911 4.34991C0.36826 4.04332 0.705277 4.01055 0.91357 3.95205C2.43716 3.52142 4.01457 3.45121 5.5756 3.29908C10.0153 2.86377 14.455 2.45421 18.8994 2.06103C21.2468 1.85274 23.5989 1.67018 25.9509 1.52507C30.2736 1.25593 34.5986 1.00083 38.926 0.780834C41.0043 0.675517 43.0896 0.677858 45.1702 0.605306C50.5694 0.420416 55.9687 0.441487 61.3679 0.525741C63.7434 0.563187 66.1259 0.624027 68.4827 0.998488C68.8173 1.05232 69.152 1.12955 69.4726 1.23721C69.8167 1.35189 70.0718 1.58827 70.0577 1.98379C70.046 2.34421 69.8026 2.5525 69.489 2.68591C68.911 2.92931 68.2931 2.98314 67.6823 3.05569C65.4261 3.32483 63.1583 3.46759 60.8905 3.59397C57.0757 3.80695 53.2585 4.01523 49.4413 4.21417C47.4684 4.31714 45.4955 4.40843 43.5225 4.4763C39.9137 4.60268 36.3071 4.76416 32.7029 4.97713C30.8798 5.08479 29.0543 5.15968 27.2311 5.2533C27.0322 5.26266 26.8333 5.28607 26.6343 5.30245C26.6343 5.34224 26.6367 5.37968 26.639 5.41947V5.41713Z" fill="#2F221B"/>
</svg>
